X: 40662
T: Top Of The Maol, The
R: polka
M: 2/4
K: Adorian
|:E|A2 AB/d/|ed BA|GG/F/ GA|Bd B/A/G|
A2 AB/d/|e/f/g/e/ Bd|e/f/g/e/ dB|A2- A:|
|:B/d/|eg a/g/a|ba ga/g/|e>f ga|ge g/e/d|
ea a/g/a|ba g2|e/f/g/e/ dB|A2- A:|

